X:1
T:Sunday in New York
T:Sunday in New York
T:Peter Nero
T:Carroll Oates
C:Peter Nero
Z:All Rights Reserved
L:1/8
M:4/4
K:G
V:1 treble 
%%MIDI program 0
V:1
|: z"Dm7" c3"G7" B2 G2 |"Dm7" c3"G7" B z4 |"Dm7" z c3"G7" B2 G2 |"Dm7" Bcd"G7"G- G4 | %4
w: New York on|Sun- day,|big ci- ty|tak- ing a nap. *|
w: If you've got|trou- bles|just take them|out for a walk. *|
"Cm7" z _B3"F7" A2 =F2 |"Cm7" _B3"F7" A- AG=F"Am7"D- | D2 DC"D7" D=FDC |"Gmaj7""G6" D8 :| %8
w: Slow down, it's|Sun- day. * Life's a ball,|* let it fall right in your|lap.|
w: They'll burst like|bub- bles * in the fun|* of a Sun- day in New||
"Cm7" _EEDE- EE=FG- | (3G2 A2 _B2"F9" cBc"Bb"d- | d2 cB A2 G"Dm7"D- |"G7" D8 |"Cm7" _EEDE- EE=FG- | %13
w: You can spend time * with out spend|* ing a dime watch- ing peo-|* ple watch peo- ple pass.||La- ter you pause, * and by one|
w: |||||
 (3G2 A2 _B2"F9" cBcd- |"Bbmaj7" d_Bc"Bb7"d- dBc"Am7"d- |"D9" d8 |"Dm7" z c3"G7" B2 G2 | %17
w: * of the stores there's that face|* next to yours * in the glass.||Two hearts stop|
w: ||||
"Dm7" c3"G7" B z4 |"Dm7" z c3"G7" B2 G2 |"Dm" BcdG- G4 |"Cm7" z _B3"F7" A2 =F2 | %21
w: beat- ing,|you're both too|breath- less to speak. *|Love smiles her|
w: ||||
"Cm7" _B3"F7" A- AG=FD- |"Am7" D2 DC"D7" D=FDC |"Dm6""E7" D8 | z"Am7" C3 E2 G2 | %25
w: greet- ing * then the dream|* that has seen you through the|week.|comes true on|
w: ||||
 c B3"D7b9" G2 AG- |"G6" G8- | G6 z2 |] %28
w: Sun- day in New York.|||
w: |||

